X:1
T:Title
%%score { ( 1 3 ) | 2 }
L:1/8
M:4/4
K:F
V:1 treble nm="Grand Piano"
V:3 treble 
V:2 bass 
V:1
 z4 z2[Q:1/4=92] FG | AccA [EA][EG][EA][EG] | [CG][CF][DF]D C2 FF | EF[EG][EA] FGAc | %4
 dcBA z B,F[EG] | AccA [EA][EG][EA][EG] | [CG][CF][DF]D C2 CC | D[DF][DB][Fd] dccB | %8
[M:7/8] [DFB][FA][EA] [EG] F3 |[M:1/4] cc |[M:4/4] [EB][EA][EG][_E^F] [=EA][EG][EB][Ed] | %11
 dcc=B c2 cd | [Ec][EB][EA][EG] [EB][EG]EC | FGAB c2 cc | [EB][EA][EG][_E^F] [=EA][EG][EB][Ed] | %15
 dcc=B c2 [^Fd]>[Ec] | [Ac][GB][GB][Gc] [FB][FA][Fe][Fd] |[M:7/8] [Fc][FA][EA]>[EG] F3 |] %18
V:2
 z4 z2 [F,A,][F,B,F] | [F,CF][F,A,F][F,A,F][F,CF] [C,C][C,B,][C,C][C,B,] | %2
 [F,B,][F,A,][B,,B,][B,,F,B,] [F,A,]2 [F,A,C][F,A,C] | %3
 [C,G,C][C,A,C][C,B,][C,C] [F,A,][K:treble][F,B,F][F,CF][A,CF] | %4
 [B,F][A,CF][K:bass][G,CE][F,CF] .[C,C]2 [D,A,D][C,C] | %5
 [F,CF][F,A,F][F,A,F][F,CF] [C,C][C,B,][C,C][C,B,] | %6
 [F,B,][F,A,][B,,B,][B,,F,B,] [F,A,]2 [F,A,][F,A,] | %7
 [B,,B,][B,,B,][B,,B,][B,,B,] [F,B,F][F,A,F][^F,A,_E][G,B,D] |[M:7/8] C,[C,C][C,C] [C,B,] [F,A,]3 | %9
[M:1/4] [F,A,F][F,A,F] |[M:4/4] [C,G,][C,C][C,B,][C,A,] [C,C][C,B,][C,G,][C,B,] | %11
 [F,B,F][F,A,F][F,A,F][F,_A,F] [F,=A,F]2 [F,A,F][F,A,F] | %12
 [C,G,][C,G,][C,C][C,B,] [C,G,][C,B,][C,G,C][E,B,] | %13
 [F,A,C][K:treble][B,CE][A,CF][G,CE] [F,A,F]2 [F,A,F][K:bass][F,A,F] | %14
 [C,G,][C,C][C,B,][C,A,] [C,C][C,B,][C,G,][C,B,] | %15
 [F,B,F][F,A,F][F,A,F][F,_A,F] [F,=A,F]2 [D,A,]>[D,D] | %16
 [G,D][G,D][F,D][E,C] [D,B,][C,C][=B,,_A,][B,,A,] |[M:7/8] [C,A,][C,C][C,C]>[C,B,] [F,A,]3 |] %18
V:3
 x8 | x8 | x8 | x8 | z4 [EG]2 z2 | x8 | x8 | x8 |[M:7/8] x7 |[M:1/4] x2 |[M:4/4] x8 | x8 | x8 | %13
 x8 | x8 | x8 | x8 |[M:7/8] x7 |] %18

